X: 422
T: Maohulu yanyan gaijiao gege zen
L: 1/16
M: 2/4
K: Bb
d'2 c' d'2< f2 g [I:setbarnb 1]| 
b2 b c' b g2 f | 
d'2 f2 g f d2 | 
c'8 | 
d'2 c' d'2< f2 g | 
b2 b c' b g2 f | 
d'2 f2 g f d2 | 
f8 |]

@@@ Tune index: 9296
